X:1
T:Magdalena, 76.76 D
T:Magdalena, 76.76 D
T:John Stainer, 1868
T:Public Domain Courtesy of the Cyber Hymnal™
C:John Stainer, 1868
Z:Public Domain
Z:Courtesy of the Cyber Hymnal™
%%score ( 1 2 ) ( 3 4 )
L:1/8
Q:1/4=115
M:4/4
K:E
V:1 treble 
V:2 treble 
V:3 bass 
V:4 bass 
V:1
 E2 | [EA]2 [DG]2 [CF]2 E2 | [EB]4 [DB]2 [Ec]2 | [EB]3 E [CE]2 [DF]2 | [EG]6 [F^A]2 | %5
 [FB]2 [Ge]2 [^^Fd]2 [Dc]2 | [DB]4 [DB]2 [Ad]2 | [Gc]2 G2 [FB]2 [E^A]2 | [DB]6 [FB]2 | %9
 [Fc]3 F F2 [DB]2 | [EB]4 [CE]2 F2 | [FG]2 [FB]2 [FA]2 [^EG]2 | F6 F2 | [DG]2 [DF]2 [Ec]2 [EB]2 | %14
 [Ee]4 [EA]2 [DG]2 | [CF]2 (cB) [EA]2 [DF]2 | E6 |] %17
V:2
 E2 | x6 E2 | x8 | x3 E x4 | x8 | x8 | x8 | x2 G2 x4 | x8 | x3 F F2 x2 | x6 F2 | x8 | F6 F2 | x8 | %14
 x8 | x2 E2 x4 | E6 |] %17
V:3
 [E,G,]2 | [C,A,]2 [B,,B,]2 [A,,C]2 [C,A,]2 | [B,,F,]4 [B,,B,]2 A,2 | %3
 [G,B,]3 [G,B,] [A,C]2 [F,A,]2 | [E,B,]6 [E,C]2 | [D,B,]2 [C,B,]2 [D,^A,]2 [^^F,A,]2 | %6
 G,4 [G,B,]2 [F,^B,]2 | [E,C]2 [E,E]2 [F,D]2 [F,C]2 | [B,,B,]6 [B,D]2 | %9
 [A,E]3 [A,E] [B,D]2 [A,B,]2 | [G,B,]4 [A,C]2 [A,C]2 | [B,=D]2 [B,,D]2 [C,C]2 [C,B,]2 | %12
 [F,A,]6 [A,C]2 | [A,B,]2 [A,B,]2 [G,B,]2 [=D,G,]2 | [C,A,]4 [C,A,]2 [B,,B,]2 | %15
 [A,,C]2 (A,G,) [B,,F,]2 [B,,A,]2 | [E,G,]6 |] %17
V:4
 x2 | x8 | x6 A,2 | x8 | x8 | x8 | G,4 x4 | x8 | x8 | x8 | x8 | x8 | x8 | x8 | x8 | x2 A,,2 x4 | %16
 x6 |] %17

